X: 14084
T: ROTHFIELD'S REEL
C: Bob McQuillen April'09
B: Bob's Note Book 14 #84
%R: reel
%D:2009
Z: 2020 John Chambers <jc:trillian.mit.edu>
M: C
L: 1/8
K: G
GA \
| Bdge dBGA | B2dB AGEG | DEGA Bdge | dBGB A2Bd |
| egdB edBA | BdBG ABGE | DEGA BGBe | dBAB G2  :|
|: Bd \
| e2eg edBA | GABd e2de | gedB edBA | GBAG E2GE |
| DEGA BGBA | GBdg edBd | e2ge dBGE | DEGA G2  :|
%%begintext align
%% Jane Rothfield
%% is a really fine fiddler who frequently shows
%% up at festivals where I happen to be. It's always
%% a joy to see her, and she's so nice I thought she
%% ought to have a tune. I'm really happy to
%% find this one for you, Jane. (Hope it's worth
%% playing!)
%%endtext

%%sep 1 1 500

%%sep 1 1 500

